ibt/assets/img/icons/close.svg

<svg width="21" height="21" viewBox="0 0 21 21" fill="none" xmlns="http://www.w3.org/2000/svg">
<path fill-rule="evenodd" clip-rule="evenodd" d="M10.1161 11.233L19.3119 20.4202L20.0135 19.718L10.8177 10.5307L20.1143 1.22554L19.5012 0.612996L10.2046 9.91817L0.853223 0.575444L0.151595 1.27772L9.50298 10.6204L0.254233 19.8778L0.867345 20.4903L10.1161 11.233Z" fill="#BBBBBB"/>
</svg>

<svg width="21" height="21" fill="none" xmlns="http://www.w3.org/2000/svg"><path fill-rule="evenodd" clip-rule="evenodd" d="M10.116 11.233l9.196 9.187.701-.702-9.195-9.187 9.296-9.305-.613-.613-9.296 9.305L.853.575l-.701.703 9.351 9.342-9.249 9.258.613.612 9.25-9.257z" fill="#BBB"/></svg>
